icons/Design/layout-right-fill.svg

<svg viewBox="0 0 24 24" xmlns="http://www.w3.org/2000/svg"><path d="M21 3C21.5523 3 22 3.44772 22 4V20C22 20.5523 21.5523 21 21 21H17V3H21ZM15 21H3C2.44772 21 2 20.5523 2 20V4C2 3.44772 2.44772 3 3 3H15V21Z"/></svg>

<svg xmlns="http://www.w3.org/2000/svg" viewBox="0 0 24 24">
    <g>
        <path fill="none" d="M0 0h24v24H0z"/>
        <path d="M21 3a1 1 0 0 1 1 1v16a1 1 0 0 1-1 1h-4V3h4zm-6 18H3a1 1 0 0 1-1-1V4a1 1 0 0 1 1-1h12v18z"/>
    </g>
</svg>
